svgs/sharp-solid/up-to-line.svg

<svg xmlns="http://www.w3.org/2000/svg" viewBox="0 0 384 512"><!--! Font Awesome Pro 6.3.0 by @fontawesome - https://fontawesome.com License - https://fontawesome.com/license (Commercial License) Copyright 2023 Fonticons, Inc. --><path d="M32 288L192 128 352 288l0 32-96 0 0 160-128 0 0-160-96 0 0-32zM352 96L32 96 0 96 0 32l32 0 320 0 32 0 0 64-32 0z"/></svg>

<svg xmlns="http://www.w3.org/2000/svg" viewBox="0 0 384 512"><!--! Font Awesome Pro 6.2.0 by @fontawesome - https://fontawesome.com License - https://fontawesome.com/license (Commercial License) Copyright 2022 Fonticons, Inc. --><path d="M32 32H352h32V96H352 32 0V32H32zm0 256L192 128 352 288v32H256V480H128V320H32V288z"/></svg>
